Sources/FrostedUI/Resources/Icons.xcassets/medalCheckmark24.imageset/medal-checkmark-24.svg

<svg width="24" height="24" viewBox="0 0 24 24" fill="none" xmlns="http://www.w3.org/2000/svg" data-fui-icon="true">
  <path
    d="M4.74109 0.03125C6.50804 0.03125 7.803 1.45781 8.10925 3.02246C8.40524 4.53475 8.95144 5.76312 9.42371 6.6123C9.61731 6.96042 9.79747 7.24337 9.94128 7.4541C10.5999 7.28822 11.2898 7.2002 11.9999 7.2002C12.7097 7.2002 13.3991 7.28832 14.0575 7.4541C14.2013 7.24336 14.3824 6.96047 14.576 6.6123C15.0483 5.76312 15.5945 4.53473 15.8905 3.02246C16.1968 1.45782 17.4917 0.03125 19.2587 0.03125H21.2997C22.6624 0.03125 23.9561 1.17598 23.6786 2.70703C23.1742 5.4892 21.6479 7.52919 20.2762 8.85938C19.6232 9.49265 18.9977 9.97245 18.5194 10.3027C19.6951 11.7479 20.4002 13.5914 20.4003 15.5996C20.4003 20.2388 16.6391 24 11.9999 24C7.36073 23.9999 3.60046 20.2388 3.60046 15.5996C3.60055 13.5915 4.30472 11.7479 5.48035 10.3027C5.00205 9.97245 4.37659 9.49268 3.72351 8.85938C2.35186 7.52919 0.825578 5.48922 0.321167 2.70703C0.0436399 1.17598 1.33732 0.03125 2.70007 0.03125H4.74109ZM11.9999 8.7002C8.18929 8.70025 5.09969 11.7891 5.09949 15.5996C5.09949 19.4103 8.18916 22.4999 11.9999 22.5C15.8106 22.5 18.9003 19.4104 18.9003 15.5996C18.9001 11.789 15.8105 8.7002 11.9999 8.7002ZM14.4696 13.2695C14.7624 12.9767 15.2373 12.9768 15.5302 13.2695C15.823 13.5624 15.823 14.0372 15.5302 14.3301L11.33 18.5303C11.0371 18.823 10.5622 18.8231 10.2694 18.5303L8.4696 16.7305C8.17676 16.4376 8.17687 15.9628 8.4696 15.6699C8.7625 15.377 9.23726 15.377 9.53015 15.6699L10.7997 16.9395L14.4696 13.2695ZM2.70007 1.53125C2.0746 1.53125 1.71966 2.01416 1.79675 2.43945C2.22754 4.81564 3.53763 6.58869 4.76843 7.78223C5.38192 8.37713 5.96771 8.82041 6.39832 9.11328C6.44959 9.14815 6.49925 9.18138 6.54578 9.21191C7.12874 8.7137 7.78057 8.29384 8.48523 7.96875C8.36941 7.78583 8.24369 7.57553 8.11316 7.34082C7.58333 6.38808 6.97045 5.01128 6.63757 3.31055C6.43462 2.27361 5.62509 1.53125 4.74109 1.53125H2.70007ZM19.2587 1.53125C18.3747 1.53125 17.5651 2.27361 17.3622 3.31055C17.0293 5.01126 16.4164 6.38808 15.8866 7.34082C15.7561 7.57549 15.6303 7.78585 15.5145 7.96875C16.2192 8.29383 16.871 8.71371 17.454 9.21191C17.5005 9.18141 17.5502 9.14811 17.6014 9.11328C18.032 8.82041 18.6179 8.37711 19.2313 7.78223C20.4621 6.58869 21.7722 4.81561 22.203 2.43945C22.2801 2.01416 21.9252 1.53125 21.2997 1.53125H19.2587Z"
    fill="currentColor"
  />
</svg>

<svg xmlns="http://www.w3.org/2000/svg" width="24" height="24" fill="none" data-fui-icon="true" viewBox="0 0 24 24"><path fill="currentColor" d="M4.741.031c1.767 0 3.062 1.427 3.368 2.991.296 1.513.842 2.741 1.315 3.59.193.348.373.631.517.842A8.4 8.4 0 0 1 12 7.2c.71 0 1.4.088 2.057.254.144-.21.325-.494.519-.842a12.3 12.3 0 0 0 1.314-3.59c.307-1.564 1.602-2.99 3.369-2.99h2.04c1.363 0 2.657 1.144 2.38 2.675-.505 2.782-2.031 4.822-3.403 6.152a14 14 0 0 1-1.757 1.444 8.4 8.4 0 1 1-13.04 0c-.477-.33-1.102-.81-1.755-1.444C2.352 7.53.826 5.49.32 2.707.044 1.176 1.337.031 2.701.031zM12 8.701a6.9 6.9 0 1 0 0 13.8 6.9 6.9 0 0 0 0-13.8m2.47 4.569a.75.75 0 0 1 1.06 1.06l-4.2 4.2a.75.75 0 0 1-1.06 0l-1.8-1.8a.75.75 0 0 1 1.06-1.06l1.27 1.27zM2.7 1.53c-.625 0-.98.483-.903.908.43 2.377 1.74 4.15 2.971 5.343a12.3 12.3 0 0 0 1.778 1.43 8.4 8.4 0 0 1 1.94-1.243A13.802 13.802 0 0 1 6.637 3.31C6.435 2.274 5.625 1.53 4.74 1.53zm16.559 0c-.884 0-1.694.743-1.897 1.78a13.8 13.8 0 0 1-1.847 4.658 8.4 8.4 0 0 1 1.939 1.243l.147-.099c.431-.293 1.017-.736 1.63-1.33 1.231-1.194 2.541-2.967 2.972-5.344.077-.425-.278-.908-.903-.908z"/></svg>
